X: 1
T: Wind the Bobbin Up
S: http://lesters-tune-a-day.blogspot.co.uk/2014/09/tune-392-wind-bobbin-up.html 2014-10-3
M: 4/4
L: 1/8
K: G
Bc |\
d2de dBGB | d2de dBGB | c2Ac B2GB | AGFG ABce |\
d2de dBGB | d2de dBGB | c2Ac B2GB | AGFA G2 :|
|: z2 |\
A2AF D2D2 | GABc d2B2 | c2Ac B2G2 | AGFG A4 |\
A2AF D2D2 | GABc d2B2 | c2Ac B2G2 | A2F2 G2 :|
